T: Bonnie Prince Charlie
M: 2/4
L: 1/8
K: Dmaj
F2 (3FED|DF A2|A>B d2|F2 (3FED|F2 E>D|E2 FA|BA dc|BA F2|
A2 (3Bcd|e2 de|f2 ed|dA Bd/B/|A2 FE|DD d>e|fd af|e2 d2||
d>A .A2|e>A .A2|f2 ed|dA Bd/B/|A2 FE|DD d>e|fd af|e2 d2|
d>A .A2|e>f g2|f2 ed|dA Bd/B/|A2 FE|DD d>e|fd af|e2 d2||
